src/sprite-icons/site.svg

<svg width="48" height="48" viewBox="0 0 48 48" fill="none" xmlns="http://www.w3.org/2000/svg">
<path d="M3.2 40.6H24.8V43C24.8 44.325 25.875 45.4 27.2 45.4H30.4C31.1 45.4 31.7625 45.0875 32.2125 44.5625C32.225 44.5625 32.2375 44.5625 32.25 44.55C32.8375 45.1 33.6 45.4 34.4 45.4H44C45.325 45.4 46.4 44.325 46.4 43C46.4 42.5875 46.2875 42.175 46.075 41.825C47.1625 41.15 47.525 39.7375 46.875 38.625C47.475 38.25 47.875 37.625 47.975 36.925C48.075 36.225 47.85 35.5125 47.375 35C48.0125 34.3 48.175 33.2875 47.7875 32.425C47.4 31.5625 46.5375 31 45.5875 31H43.1875V6.2C43.1875 4.4375 41.75 3 39.9875 3H3.2C1.4375 3 0 4.4375 0 6.2V37.4C0 39.1625 1.4375 40.6 3.2 40.6ZM30.4 43.8H27.2C26.7625 43.8 26.4 43.4375 26.4 43V35.8C26.4 35.3625 26.7625 35 27.2 35H30.4C30.8375 35 31.2 35.3625 31.2 35.8V43C31.2 43.4375 30.8375 43.8 30.4 43.8ZM46.4 33.4C46.4 33.8375 46.0375 34.2 45.6 34.2H43.2C42.7625 34.2 42.4 34.5625 42.4 35C42.4 35.4375 42.7625 35.8 43.2 35.8H45.6C46.0375 35.8 46.4 36.1625 46.4 36.6C46.4 37.0375 46.0375 37.4 45.6 37.4H43.2C42.7625 37.4 42.4 37.7625 42.4 38.2C42.4 38.6375 42.7625 39 43.2 39H44.8C45.2375 39 45.6 39.3625 45.6 39.8C45.6 40.2375 45.2375 40.6 44.8 40.6H43.2C42.7625 40.6 42.4 40.9625 42.4 41.4C42.4 41.8375 42.7625 42.2 43.2 42.2H44C44.4375 42.2 44.8 42.5625 44.8 43C44.8 43.4375 44.4375 43.8 44 43.8H34.4C33.5125 43.8 32.8 43.0875 32.8 42.2V35.4625C33.8 34.8375 34.55 33.875 34.925 32.7625C35.6375 30.625 36 28.3875 36 26.1375C36 26.025 36.075 25.9375 36.175 25.9C36.45 25.85 37.1625 25.725 37.8375 27.05C38.2125 27.8125 38.4 28.65 38.3875 29.5125V31.8C38.3875 32.2375 38.75 32.6 39.1875 32.6H45.5875C46.0375 32.6 46.4 32.9625 46.4 33.4ZM40 31V29.5125C40.0125 28.4125 39.7625 27.3125 39.275 26.325C38.4875 24.7875 37.2875 24.075 35.9 24.325C35.025 24.4875 34.4 25.25 34.4 26.1375C34.4 28.2125 34.0625 30.2875 33.4125 32.2625C33.1625 33 32.675 33.625 32.025 34.0625C31.5875 33.65 31 33.425 30.4 33.4125H27.2C25.875 33.4125 24.8 34.4875 24.8 35.8125V39.0125H3.2C2.3125 39.0125 1.6 38.3 1.6 37.4125V11H41.6V31H40ZM3.2 4.6H40C40.8875 4.6 41.6 5.3125 41.6 6.2V9.4H1.6V6.2C1.6 5.3125 2.3125 4.6 3.2 4.6Z" fill="white"/>
<path fill-rule="evenodd" clip-rule="evenodd" d="M4.79922 6.99898C4.79922 7.43648 4.43672 7.79898 3.99922 7.79898C3.56172 7.79898 3.19922 7.43648 3.19922 6.99898C3.19922 6.56148 3.56172 6.19897 3.99922 6.19897C4.43672 6.19897 4.79922 6.56148 4.79922 6.99898Z" fill="white"/>
<path fill-rule="evenodd" clip-rule="evenodd" d="M8.00039 6.99898C8.00039 7.43648 7.63789 7.79898 7.20039 7.79898C6.76289 7.79898 6.40039 7.43648 6.40039 6.99898C6.40039 6.56148 6.76289 6.19897 7.20039 6.19897C7.63789 6.19897 8.00039 6.56148 8.00039 6.99898Z" fill="white"/>
<path fill-rule="evenodd" clip-rule="evenodd" d="M11.1996 6.99898C11.1996 7.43648 10.8371 7.79898 10.3996 7.79898C9.96211 7.79898 9.59961 7.43648 9.59961 6.99898C9.59961 6.56148 9.96211 6.19897 10.3996 6.19897C10.8371 6.19897 11.1996 6.56148 11.1996 6.99898Z" fill="white"/>
<path d="M6.4 27.8005H19.2C20.525 27.8005 21.6 26.7255 21.6 25.4005V15.8005C21.6 14.4755 20.525 13.4005 19.2 13.4005H6.4C5.075 13.4005 4 14.4755 4 15.8005V25.4005C4 26.7255 5.075 27.8005 6.4 27.8005ZM8.3625 26.2005L12.0625 20.3755L13.8375 22.6005L11.5625 26.2005H8.3625ZM19.2 26.2005H13.4625L17.675 19.5755L20 22.488V25.413C20 25.838 19.6375 26.2005 19.2 26.2005ZM5.6 15.8005C5.6 15.363 5.9625 15.0005 6.4 15.0005H19.2C19.6375 15.0005 20 15.363 20 15.8005V19.9255L18.225 17.7005C18.0625 17.5005 17.8125 17.388 17.5625 17.4005C17.3 17.413 17.075 17.5505 16.925 17.7755L14.7625 21.1755L12.625 18.5005C12.4625 18.3005 12.2125 18.188 11.9625 18.2005C11.7 18.213 11.475 18.3505 11.325 18.5755L6.475 26.2005H6.4C5.9625 26.2005 5.6 25.838 5.6 25.4005V15.8005Z" fill="white"/>
<path fill-rule="evenodd" clip-rule="evenodd" d="M8.79922 17.3995C8.79922 17.837 8.43672 18.1995 7.99922 18.1995C7.56172 18.1995 7.19922 17.837 7.19922 17.3995C7.19922 16.962 7.56172 16.5995 7.99922 16.5995C8.43672 16.5995 8.79922 16.962 8.79922 17.3995Z" fill="white"/>
<path fill-rule="evenodd" clip-rule="evenodd" d="M38.4 14.199H24.8C24.3625 14.199 24 14.5615 24 14.999C24 15.4365 24.3625 15.799 24.8 15.799H38.4C38.8375 15.799 39.2 15.4365 39.2 14.999C39.2 14.5615 38.8375 14.199 38.4 14.199Z" fill="white"/>
<path fill-rule="evenodd" clip-rule="evenodd" d="M38.4 17.4005H24.8C24.3625 17.4005 24 17.763 24 18.2005C24 18.638 24.3625 19.0005 24.8 19.0005H38.4C38.8375 19.0005 39.2 18.638 39.2 18.2005C39.2 17.763 38.8375 17.4005 38.4 17.4005Z" fill="white"/>
<path fill-rule="evenodd" clip-rule="evenodd" d="M38.4 20.5995H24.8C24.3625 20.5995 24 20.962 24 21.3995C24 21.837 24.3625 22.1995 24.8 22.1995H38.4C38.8375 22.1995 39.2 21.837 39.2 21.3995C39.2 20.962 38.8375 20.5995 38.4 20.5995Z" fill="white"/>
<path fill-rule="evenodd" clip-rule="evenodd" d="M32 23.801H24.8C24.3625 23.801 24 24.1635 24 24.601C24 25.0385 24.3625 25.401 24.8 25.401H32C32.4375 25.401 32.8 25.0385 32.8 24.601C32.8 24.1635 32.4375 23.801 32 23.801Z" fill="white"/>
<path fill-rule="evenodd" clip-rule="evenodd" d="M23.2 31H4.8C4.3625 31 4 31.3625 4 31.8C4 32.2375 4.3625 32.6 4.8 32.6H23.2C23.6375 32.6 24 32.2375 24 31.8C24 31.3625 23.6375 31 23.2 31Z" fill="white"/>
<path fill-rule="evenodd" clip-rule="evenodd" d="M20.8 34.199H4.8C4.3625 34.199 4 34.5615 4 34.999C4 35.4365 4.3625 35.799 4.8 35.799H20.8C21.2375 35.799 21.6 35.4365 21.6 34.999C21.6 34.5615 21.2375 34.199 20.8 34.199Z" fill="white"/>
</svg>

<svg width="48" height="48" fill="none" xmlns="http://www.w3.org/2000/svg"><path d="M3.2 40.6h21.6V43a2.4 2.4 0 0 0 2.4 2.4h3.2c.7 0 1.363-.313 1.813-.837.012 0 .024 0 .037-.013.587.55 1.35.85 2.15.85H44a2.4 2.4 0 0 0 2.4-2.4c0-.413-.112-.825-.325-1.175a2.36 2.36 0 0 0 .8-3.2c.6-.375 1-1 1.1-1.7.1-.7-.125-1.412-.6-1.925.638-.7.8-1.712.413-2.575a2.417 2.417 0 0 0-2.2-1.425h-2.4V6.2c0-1.763-1.438-3.2-3.2-3.2H3.2A3.206 3.206 0 0 0 0 6.2v31.2c0 1.763 1.438 3.2 3.2 3.2Zm27.2 3.2h-3.2a.806.806 0 0 1-.8-.8v-7.2c0-.438.363-.8.8-.8h3.2c.438 0 .8.362.8.8V43c0 .438-.363.8-.8.8Zm16-10.4c0 .438-.362.8-.8.8h-2.4c-.438 0-.8.362-.8.8 0 .438.363.8.8.8h2.4c.438 0 .8.363.8.8 0 .438-.362.8-.8.8h-2.4c-.438 0-.8.363-.8.8 0 .438.363.8.8.8h1.6c.438 0 .8.362.8.8 0 .438-.363.8-.8.8h-1.6c-.438 0-.8.362-.8.8 0 .438.363.8.8.8h.8c.438 0 .8.362.8.8 0 .438-.362.8-.8.8h-9.6c-.887 0-1.6-.712-1.6-1.6v-6.738c1-.625 1.75-1.587 2.125-2.7A20.952 20.952 0 0 0 36 26.138c0-.112.075-.2.175-.237.275-.05.988-.175 1.663 1.15.374.762.562 1.6.55 2.462V31.8c0 .437.362.8.8.8h6.4c.45 0 .812.362.812.8ZM40 31v-1.488c.013-1.1-.237-2.2-.725-3.187-.788-1.537-1.987-2.25-3.375-2-.875.163-1.5.925-1.5 1.813 0 2.074-.337 4.15-.987 6.125a3.537 3.537 0 0 1-1.388 1.8 2.446 2.446 0 0 0-1.625-.65h-3.2a2.4 2.4 0 0 0-2.4 2.4v3.2H3.2c-.888 0-1.6-.713-1.6-1.6V11h40v20H40ZM3.2 4.6H40c.888 0 1.6.713 1.6 1.6v3.2h-40V6.2c0-.888.712-1.6 1.6-1.6Z" fill="#fff"/><path fill-rule="evenodd" clip-rule="evenodd" d="M4.8 6.999c0 .437-.363.8-.8.8a.806.806 0 0 1-.8-.8c0-.438.362-.8.8-.8.437 0 .8.362.8.8ZM8 6.999c0 .437-.362.8-.8.8a.806.806 0 0 1-.8-.8c0-.438.363-.8.8-.8.438 0 .8.362.8.8ZM11.2 6.999c0 .437-.363.8-.8.8a.806.806 0 0 1-.8-.8c0-.438.362-.8.8-.8.437 0 .8.362.8.8Z" fill="#fff"/><path d="M6.4 27.8h12.8a2.4 2.4 0 0 0 2.4-2.4v-9.6a2.4 2.4 0 0 0-2.4-2.4H6.4A2.4 2.4 0 0 0 4 15.8v9.6a2.4 2.4 0 0 0 2.4 2.4Zm1.963-1.6 3.7-5.825 1.774 2.226-2.274 3.6h-3.2Zm10.837 0h-5.737l4.212-6.624L20 22.488v2.925a.803.803 0 0 1-.8.788ZM5.6 15.8c0-.437.363-.8.8-.8h12.8c.438 0 .8.363.8.8v4.125l-1.775-2.224a.81.81 0 0 0-.663-.3.804.804 0 0 0-.637.375l-2.163 3.4-2.137-2.675a.81.81 0 0 0-.662-.3.804.804 0 0 0-.638.375L6.475 26.2H6.4a.806.806 0 0 1-.8-.8v-9.6Z" fill="#fff"/><path fill-rule="evenodd" clip-rule="evenodd" d="M8.8 17.4c0 .437-.363.8-.8.8a.806.806 0 0 1-.8-.8c0-.438.362-.8.8-.8.437 0 .8.362.8.8ZM38.4 14.199H24.8c-.438 0-.8.363-.8.8 0 .438.363.8.8.8h13.6c.438 0 .8-.362.8-.8 0-.438-.363-.8-.8-.8ZM38.4 17.4H24.8c-.438 0-.8.363-.8.8 0 .438.363.8.8.8h13.6c.438 0 .8-.362.8-.8 0-.437-.363-.8-.8-.8ZM38.4 20.6H24.8c-.438 0-.8.362-.8.8 0 .437.363.8.8.8h13.6c.438 0 .8-.363.8-.8 0-.438-.363-.8-.8-.8ZM32 23.801h-7.2c-.438 0-.8.363-.8.8 0 .438.363.8.8.8H32c.438 0 .8-.363.8-.8 0-.438-.362-.8-.8-.8ZM23.2 31H4.8c-.438 0-.8.363-.8.8 0 .437.362.8.8.8h18.4c.438 0 .8-.363.8-.8 0-.438-.363-.8-.8-.8ZM20.8 34.199h-16c-.438 0-.8.363-.8.8 0 .438.362.8.8.8h16c.438 0 .8-.362.8-.8 0-.438-.363-.8-.8-.8Z" fill="#fff"/></svg>
